XMP/xmpPresets/AnalogFilm/N - Fuji Velvia 50.xmp
<x:xmpmeta xmlns:x="adobe:ns:meta/" x:xmptk="Adobe XMP Core 5.6-c140 79.160451, 2017/05/06-01:08:21        ">
 <rdf:RDF xmlns:rdf="http://www.w3.org/1999/02/22-rdf-syntax-ns#">
  <rdf:Description rdf:about=""
    xmlns:crs="http://ns.adobe.com/camera-raw-settings/1.0/"
   crs:PresetType="Normal"
   crs:Cluster=""
   crs:UUID="0B90D61F223261B97FF43701F9124883"
   crs:SupportsAmount="False"
   crs:SupportsColor="True"
   crs:SupportsMonochrome="True"
   crs:SupportsHighDynamicRange="True"
   crs:SupportsNormalDynamicRange="True"
   crs:SupportsSceneReferred="True"
   crs:SupportsOutputReferred="True"
   crs:CameraModelRestriction=""
   crs:Copyright=""
   crs:ContactInfo=""
   crs:Version="10.4"
   crs:ProcessVersion="6.7"
   crs:WhiteBalance="As Shot"
   crs:Saturation="+5"
   crs:Sharpness="50"
   crs:LuminanceSmoothing="0"
   crs:ColorNoiseReduction="25"
   crs:ShadowTint="-5"
   crs:RedHue="+10"
   crs:RedSaturation="+10"
   crs:GreenHue="+10"
   crs:GreenSaturation="-10"
   crs:BlueHue="-10"
   crs:BlueSaturation="+30"
   crs:Vibrance="0"
   crs:HueAdjustmentRed="+15"
   crs:HueAdjustmentOrange="-15"
   crs:HueAdjustmentYellow="-15"
   crs:HueAdjustmentGreen="+20"
   crs:HueAdjustmentAqua="+10"
   crs:HueAdjustmentBlue="+20"
   crs:HueAdjustmentPurple="+30"
   crs:HueAdjustmentMagenta="+15"
   crs:SaturationAdjustmentRed="-10"
   crs:SaturationAdjustmentOrange="0"
   crs:SaturationAdjustmentYellow="0"
   crs:SaturationAdjustmentGreen="-10"
   crs:SaturationAdjustmentAqua="0"
   crs:SaturationAdjustmentBlue="0"
   crs:SaturationAdjustmentPurple="0"
   crs:SaturationAdjustmentMagenta="-15"
   crs:LuminanceAdjustmentRed="-20"
   crs:LuminanceAdjustmentOrange="-15"
   crs:LuminanceAdjustmentYellow="0"
   crs:LuminanceAdjustmentGreen="-25"
   crs:LuminanceAdjustmentAqua="-15"
   crs:LuminanceAdjustmentBlue="-25"
   crs:LuminanceAdjustmentPurple="-5"
   crs:LuminanceAdjustmentMagenta="-15"
   crs:SplitToningShadowHue="0"
   crs:SplitToningShadowSaturation="0"
   crs:SplitToningHighlightHue="275"
   crs:SplitToningHighlightSaturation="0"
   crs:SplitToningBalance="0"
   crs:ParametricShadows="0"
   crs:ParametricDarks="0"
   crs:ParametricLights="0"
   crs:ParametricHighlights="0"
   crs:ParametricShadowSplit="15"
   crs:ParametricMidtoneSplit="60"
   crs:ParametricHighlightSplit="75"
   crs:SharpenRadius="+1.2"
   crs:SharpenDetail="25"
   crs:SharpenEdgeMasking="0"
   crs:PostCropVignetteAmount="0"
   crs:GrainAmount="15"
   crs:GrainSize="35"
   crs:GrainFrequency="35"
   crs:ColorNoiseReductionDetail="50"
   crs:ColorNoiseReductionSmoothness="50"
   crs:Exposure2012="0.00"
   crs:Contrast2012="0"
   crs:Highlights2012="-25"
   crs:Shadows2012="+15"
   crs:Whites2012="0"
   crs:Blacks2012="+15"
   crs:Clarity2012="0"
   crs:ConvertToGrayscale="False"
   crs:OverrideLookVignette="False"
   crs:ToneCurveName2012="Custom"
   crs:CameraProfile="Default Profile"
   crs:HasSettings="True">
   <crs:Name>
    <rdf:Alt>
     <rdf:li xml:lang="x-default">N - Fuji Velvia 50</rdf:li>
    </rdf:Alt>
   </crs:Name>
   <crs:ShortName>
    <rdf:Alt>
     <rdf:li xml:lang="x-default"/>
    </rdf:Alt>
   </crs:ShortName>
   <crs:SortName>
    <rdf:Alt>
     <rdf:li xml:lang="x-default"/>
    </rdf:Alt>
   </crs:SortName>
   <crs:Group>
    <rdf:Alt>
     <rdf:li xml:lang="x-default">N Fujifilm Stocks</rdf:li>
    </rdf:Alt>
   </crs:Group>
   <crs:Description>
    <rdf:Alt>
     <rdf:li xml:lang="x-default"/>
    </rdf:Alt>
   </crs:Description>
   <crs:ToneCurvePV2012>
    <rdf:Seq>
     <rdf:li>0, 0</rdf:li>
     <rdf:li>255, 255</rdf:li>
    </rdf:Seq>
   </crs:ToneCurvePV2012>
   <crs:ToneCurvePV2012Red>
    <rdf:Seq>
     <rdf:li>0, 0</rdf:li>
     <rdf:li>50, 25</rdf:li>
     <rdf:li>115, 125</rdf:li>
     <rdf:li>180, 205</rdf:li>
     <rdf:li>255, 255</rdf:li>
    </rdf:Seq>
   </crs:ToneCurvePV2012Red>
   <crs:ToneCurvePV2012Green>
    <rdf:Seq>
     <rdf:li>0, 0</rdf:li>
     <rdf:li>50, 25</rdf:li>
     <rdf:li>115, 125</rdf:li>
     <rdf:li>175, 205</rdf:li>
     <rdf:li>255, 255</rdf:li>
    </rdf:Seq>
   </crs:ToneCurvePV2012Green>
   <crs:ToneCurvePV2012Blue>
    <rdf:Seq>
     <rdf:li>0, 0</rdf:li>
     <rdf:li>50, 25</rdf:li>
     <rdf:li>115, 125</rdf:li>
     <rdf:li>175, 210</rdf:li>
     <rdf:li>255, 255</rdf:li>
    </rdf:Seq>
   </crs:ToneCurvePV2012Blue>
   <crs:Look
    crs:Name=""/>
  </rdf:Description>
 </rdf:RDF>
</x:xmpmeta>
